X:1
T:James Gibb editions
T:O salutaris hostia - Palestrina
%%score [ 1 2 3 4 ]
L:1/8
Q:1/4=96
M:4/4
K:A
V:1 treble nm="Soprano" snm="S"
V:2 treble nm="Alto" snm="A"
V:3 treble-8 nm="Tenor" snm="T"
V:4 bass nm="Bass" snm="B"
V:1
"^O salutaris hostia""^Giovanni Pierluigi da Palestrina\n(1525-94)" G4 G2 G2 | A2 A2 A3 A | G6 z2 | %3
w: O sa- lu-|ta- ris hos- ti-|a|
w: U- ni tri-|no- que Do- mi-|no|
 G4 A2 A2 | A2 A2 B3 B | c6 z2 | c6 c2 | c4 c2 c2 | B4 A4 | G8 | z4 G4 | G4 A4 | B4 A4 | %13
w: quae coe- li|pan- dis os- ti-|um|Bel- la|pre- munt hos-|ti- li-|a|da|ro- bur,|fer au-|
w: sit sem- pi-|ter- na glo- ri-|a|qui vi-|tam si- ne|ter- mi-|no|no-|bis do-|net in|
 (A2 GF G2) G2 | A8 :| A8 | A8 |] %17
w: xi\- * * * li-|um.|||
w: pa\- * * * tri-|a.|A-|men.|
V:2
 E4 E2 E2 | F2 F2 F3 F | E6 z2 | E4 E2 E2 | F2 F2 G2 G2 | A6 z2 | A6 A2 | A4 G2 G2 | F4 F4 | E8 | %10
w: O sa- lu-|ta- ris hos- ti-|a|quae coe- li|pan- dis os- ti-|um|Bel- la|pre- munt hos-|ti- li-|a|
w: U- ni tri-|no- que Do- mi-|no|sit sem- pi-|ter- na glo- ri-|a|qui vi-|tam si- ne|ter- mi-|no|
 z4 E4 | E4 E4 | F4 F4 | E6 E2 | C8 :| F8 | E8 |] %17
w: da|ro- bur,|fer au-|xi- li-|um.|||
w: no-|bis do-|net in|pa- tri-|a.|A-|men.|
V:3
 B4 B2 c2 | c2 c2 d3 d | B6 z2 | B4 c2 c2 | c2 c2 d3 d | e6 z2 | e6 e2 | f4 e2 e2 | d4 d4 | B8 | %10
w: O sa- lu-|ta- ris hos- ti-|a|quae coe- li|pan- dis os- ti-|um|Bel- la|pre- munt hos-|ti- li-|a|
w: U- ni tri-|no- que Do- mi-|no|sit sem- pi-|ter- na glo- ri-|a|qui vi-|tam si- ne|ter- mi-|no|
 z4 B4 | c4 c4 | d6 c2 | B6 B2 | A8 :| d8 | c8 |] %17
w: da|ro- bur,|fer au-|xi- li-|um.|||
w: no-|bis do-|net in|pa- tri-|a.|A-|men.|
V:4
 E,4 E,2 C,2 | F,2 F,2 D,3 D, | E,6 z2 | E,4 A,2 A,2 | F,2 F,2 B,3 B, | A,6 z2 | A,6 A,2 | %7
w: O sa- lu-|ta- ris hos- ti-|a|quae coe- li|pan- dis os- ti-|um|Bel- la|
w: U- ni tri-|no- que Do- mi-|no|sit sem- pi-|ter- na glo- ri-|a|qui vi-|
 F,4 C,2 C,2 | D,4 D,4 | E,8 | z4 E,4 | C,4 C,4 | (B,,3 C,) D,4 | E,6 E,2 | A,,8 :| D,8 | A,,8 |] %17
w: pre- munt hos-|ti- li-|a|da|ro- bur,|fer * au-|xi- li-|um.|||
w: tam si- ne|ter- mi-|no|no-|bis do-|ne\_- * in|pa- tri-|a.|A-|men.|

